src/icons/svg/logout-right.svg

<svg width="20" height="20" fill="none" xmlns="http://www.w3.org/2000/svg"><path d="M4.75 4.463a.508.508 0 0 0-.299.312c-.045.109-.051.71-.051 5.234v5.11l.075.149a.584.584 0 0 0 1.05 0l.075-.149-.001-5.118c0-4.895-.003-5.123-.062-5.251a.508.508 0 0 0-.312-.299.557.557 0 0 0-.475.012m7.5 1.5a.508.508 0 0 0-.299.312.546.546 0 0 0 0 .451c.035.084.459.533 1.325 1.399L14.55 9.4H8.881l-.149.075a.584.584 0 0 0 0 1.05l.149.075h5.669l-1.274 1.275c-.866.866-1.29 1.315-1.325 1.399a.56.56 0 0 0 .012.476c.073.159.147.23.312.299a.553.553 0 0 0 .475-.013c.165-.078 3.763-3.674 3.815-3.813A.784.784 0 0 0 16.6 10a.784.784 0 0 0-.035-.223c-.052-.139-3.65-3.735-3.815-3.813a.56.56 0 0 0-.5-.001" fill-rule="evenodd" fill="#000"/></svg>

<svg width="20" height="20" viewBox="0 0 20 20" fill="none" xmlns="http://www.w3.org/2000/svg"><path d="M4.750 4.463 C 4.591 4.536,4.520 4.610,4.451 4.775 C 4.406 4.884,4.400 5.485,4.400 10.009 L 4.400 15.119 4.475 15.268 C 4.696 15.705,5.304 15.705,5.525 15.268 L 5.600 15.119 5.599 10.001 C 5.599 5.106,5.596 4.878,5.537 4.750 C 5.464 4.591,5.390 4.520,5.225 4.451 C 5.064 4.384,4.914 4.388,4.750 4.463 M12.250 5.963 C 12.091 6.036,12.020 6.110,11.951 6.275 C 11.886 6.431,11.886 6.569,11.951 6.726 C 11.986 6.810,12.410 7.259,13.276 8.125 L 14.550 9.400 11.715 9.400 L 8.881 9.400 8.732 9.475 C 8.295 9.696,8.295 10.304,8.732 10.525 L 8.881 10.600 11.715 10.600 L 14.550 10.600 13.276 11.875 C 12.410 12.741,11.986 13.190,11.951 13.274 C 11.884 13.437,11.888 13.586,11.963 13.750 C 12.036 13.909,12.110 13.980,12.275 14.049 C 12.437 14.116,12.587 14.112,12.750 14.036 C 12.915 13.958,16.513 10.362,16.565 10.223 C 16.584 10.171,16.600 10.071,16.600 10.000 C 16.600 9.929,16.584 9.829,16.565 9.777 C 16.513 9.638,12.915 6.042,12.750 5.964 C 12.582 5.885,12.420 5.885,12.250 5.963 " stroke="none" fill-rule="evenodd" fill="black"></path></svg>
